X:65
T: MORGEN MUSS ICH FORT VON HIER
N: F0162
O: Europa, Mitteleuropa, Deutschland
R: Abschieds - Lied
M: 4/4
L: 1/8
K: G
 | B3Bc2B2 | A2G2G2A2
B2B2e2d2 | d6c2 | B6z2
B3Bc2B2 | A2G2G2A2
B2B2e2d2 | d6c2 | B6z2
A3AB2B2 | c2B2c2z2
B3Bc2c2 | d4e3z
d3cB2dc | B4A4 | G6z2

